packages/icons/src/components/Icon/assets/small-outline/database.svg

<svg width="16" height="16" viewBox="0 0 16 16" fill="none" xmlns="http://www.w3.org/2000/svg">
<path fill-rule="evenodd" clip-rule="evenodd" d="M4.43016 2.91476C3.51176 3.37396 3.16894 3.89889 3.16894 4.30282C3.16894 4.70674 3.51176 5.23167 4.43016 5.69088C5.31318 6.13238 6.57445 6.42254 7.99992 6.42254C9.42539 6.42254 10.6867 6.13238 11.5697 5.69088C12.4881 5.23167 12.8309 4.70674 12.8309 4.30282C12.8309 3.89889 12.4881 3.37396 11.5697 2.91476C10.6867 2.47325 9.42539 2.1831 7.99992 2.1831C6.57445 2.1831 5.31318 2.47325 4.43016 2.91476ZM12.8309 6.30597C12.6045 6.47207 12.3569 6.62 12.0988 6.74907C11.0192 7.28885 9.56924 7.60563 7.99992 7.60563C6.43061 7.60563 4.98062 7.28885 3.90106 6.74907C3.64293 6.62 3.39537 6.47207 3.16894 6.30597V6.76761C3.16894 7.17153 3.51176 7.69646 4.43016 8.15566C5.31318 8.59717 6.57445 8.88732 7.99992 8.88732C9.42539 8.88732 10.6867 8.59717 11.5697 8.15566C12.4881 7.69646 12.8309 7.17153 12.8309 6.76761V6.30597ZM12.8309 8.77076C12.6045 8.93686 12.3569 9.08479 12.0988 9.21386C11.0192 9.75364 9.56924 10.0704 7.99992 10.0704C6.43061 10.0704 4.98062 9.75364 3.90106 9.21386C3.64293 9.08479 3.39537 8.93686 3.16894 8.77076V9.23239C3.16894 9.63632 3.51176 10.1613 4.43016 10.6205C5.31318 11.062 6.57445 11.3521 7.99992 11.3521C9.42539 11.3521 10.6867 11.062 11.5697 10.6205C12.4881 10.1613 12.8309 9.63632 12.8309 9.23239V8.77076ZM12.8309 11.2356C12.6045 11.4016 12.3569 11.5496 12.0988 11.6786C11.0192 12.2184 9.56924 12.5352 7.99992 12.5352C6.43061 12.5352 4.98062 12.2184 3.90106 11.6786C3.64293 11.5496 3.39537 11.4016 3.16894 11.2355V11.6972C3.16894 12.1011 3.51176 12.626 4.43016 13.0852C5.31318 13.5268 6.57445 13.8169 7.99992 13.8169C9.42539 13.8169 10.6867 13.5268 11.5697 13.0852C12.4881 12.626 12.8309 12.1011 12.8309 11.6972V11.2356ZM1.98584 4.30282C1.98584 3.20935 2.85689 2.37865 3.90106 1.85656C4.98062 1.31679 6.43061 1 7.99992 1C9.56924 1 11.0192 1.31679 12.0988 1.85656C13.143 2.37865 14.014 3.20935 14.014 4.30282V11.6972C14.014 12.7907 13.143 13.6214 12.0988 14.1434C11.0192 14.6832 9.56924 15 7.99992 15C6.43061 15 4.98062 14.6832 3.90106 14.1434C2.85689 13.6214 1.98584 12.7907 1.98584 11.6972V4.30282Z" fill="black"/>
</svg>

<svg xmlns="http://www.w3.org/2000/svg" width="16" height="16" fill="none" viewBox="0 0 16 16">
    <path d="M4.43 2.915c-.918.459-1.261.984-1.261 1.388s.343.929 1.261 1.388c.883.441 2.144.732 3.57.732s2.687-.29 3.57-.732c.918-.46 1.26-.984 1.26-1.388s-.342-.929-1.26-1.388c-.883-.442-2.145-.732-3.57-.732-1.426 0-2.687.29-3.57.732m8.4 3.391a5 5 0 0 1-.731.443c-1.08.54-2.53.857-4.1.857-1.568 0-3.018-.317-4.098-.857a5 5 0 0 1-.732-.443v.462c0 .404.343.928 1.261 1.388.883.441 2.144.731 3.57.731s2.687-.29 3.57-.731c.918-.46 1.26-.984 1.26-1.388zm0 2.465a5 5 0 0 1-.731.443c-1.08.54-2.53.856-4.1.856-1.568 0-3.018-.316-4.098-.856a5 5 0 0 1-.732-.443v.461c0 .404.343.93 1.261 1.389.883.441 2.144.731 3.57.731s2.687-.29 3.57-.732c.918-.459 1.26-.984 1.26-1.388zm0 2.465a5 5 0 0 1-.731.443c-1.08.54-2.53.856-4.1.856-1.568 0-3.018-.317-4.098-.856a5 5 0 0 1-.732-.444v.462c0 .404.343.929 1.261 1.388.883.442 2.144.732 3.57.732s2.687-.29 3.57-.732c.918-.459 1.26-.984 1.26-1.388zM1.987 4.303c0-1.094.87-1.924 1.915-2.446C4.981 1.317 6.431 1 8 1s3.02.317 4.099.857c1.044.522 1.915 1.352 1.915 2.446v7.394c0 1.094-.871 1.924-1.915 2.446-1.08.54-2.53.857-4.1.857-1.568 0-3.018-.317-4.098-.857-1.044-.522-1.915-1.352-1.915-2.446z" clip-rule="evenodd"/>
</svg>
